public/images/investor-icon.svg

<svg height="58" viewBox="0 0 58 58" width="58" xmlns="http://www.w3.org/2000/svg"><path d="m34.38 0c3.0299393 0 5.4998497 2.39776897 5.6157468 5.39932261l.0042532.22067739v2.38h12c3.2383969 0 5.8775718 2.5655749 5.9958615 5.7750617l.0041385.2249383v30c0 3.2383969-2.5655749 5.8775718-5.7750617 5.9958615l-.2249383.0041385h-30.42c-.1479656.5888996-.3453316 1.1642717-.59 1.72-1.820267 3.8404332-5.6900237 6.2886944-9.94 6.2886944-4.24997635 0-8.11973298-2.4482612-9.94-6.2886944-.52733655-1.1023001-.86539137-2.2854919-1-3.5-.10041982-.8135797-.10041982-1.6364203 0-2.45-.00490247-.0865973-.00490247-.1734027 0-.26.09620592-.7471561.27393162-1.4815321.53-2.19.89005823-2.5506162 2.69639827-4.6744533 5.06148047-5.9632758l.29851953-.1567242v-23.2c0-3.2383969 2.56557489-5.87757176 5.7750617-5.99586153l.2249383-.00413847h12v-2.38c0-3.02993933 2.397769-5.49984972 5.3993226-5.61574685l.2206774-.00425315zm-23.38 38c-4.97056275 0-9 4.0294373-9 9s4.02943725 9 9 9c4.9705627 0 9-4.0294373 9-9s-4.0294373-9-9-9zm0 2.5c.5522847 0 1 .4477153 1 1v1h1c.5522847 0 1 .4477153 1 1s-.4477153 1-1 1h-2.5c-.2761424 0-.5.2238576-.5.5s.2238576.5.5.5h1c1.3807118-.1380711 2.6119287.8692882 2.7499999 2.25s-.8692881 2.6119288-2.2499999 2.75v1c0 .5522847-.4477153 1-1 1s-1-.4477153-1-1v-1h-1c-.55228475 0-1-.4477153-1-1s.44771525-1 1-1h2.5c.2761424 0 .5-.2238576.5-.5s-.2238576-.5-.5-.5h-1c-1.38071184.1380711-2.61192871-.8692882-2.74999989-2.25s.86928807-2.6119288 2.24999989-2.75v-1c0-.5522847.4477153-1 1-1zm-.6340799-30.1520844-.0522192.0238545c-.0094332.0043917-.0188464.0088192-.0282395.0132821-.0263883.0125324-.0532327.0256543-.0799064.0390659-.0271458.0136499-.054008.0275432-.0806905.0417297-.0327575.0174216-.0648235.0350465-.0966178.0530944-.0220129.0124922-.04427587.0254128-.0664014.0385405-.02788045.0165456-.05524862.033236-.08239803.0502433-.0319696.0200268-.06363353.0404915-.09498571.0613871-.01751822.0116758-.03489578.0234563-.05217502.0353692-.03746914.0258328-.07445299.0522711-.11096023.0793162-.01626906.012051-.03261281.024352-.04885855.0367747-.02734573.0209123-.05428148.0420629-.08093586.0635484-.03041178.0245096-.06074812.0497039-.09070126.0753332-.01726566.0147779-.03393367.029284-.05047952.0439251-.02618292.0231612-.05252389.0470929-.0785407.0713676-.02146978.0200365-.04239814.0399942-.06310849.0601745-.02631754.0256425-.0523636.0517274-.07804742.0781662-.01858484.0191264-.03730727.0387887-.05583002.0586397-.02195111.023532-.04323066.0468895-.06423477.0704975-.02266006.025466-.04516445.0514185-.06733704.0776604-.01398927.0165559-.02790835.0333027-.04169252.0501641-.02099634.0256764-.04201797.0520539-.06271013.0787-.02515574.0323942-.04982104.0651806-.07398853.0983529-.01778009.0244099-.03506525.0487043-.05208368.073198-.01440978.0207362-.02877765.041839-.0429476.0630851-.02476566.0371346-.04888466.074639-.07238725.1125656-.01107223.0178668-.02203797.0358781-.03286467.053982-.01849095.0309192-.03659485.0621418-.05428496.093628-.0130807.0232818-.02594595.0467279-.03858158.0703154-.01062085.0198248-.02114198.0398711-.03149712.0600166-.04906314.0954416-.09446083.1932571-.13592918.2931156-.06278399.1512397-.11642357.3066927-.16043893.466139-.0077567.0280919-.01527508.0565471-.02248591.0851247-.07926448.3141624-.12136062.6430287-.12136062.9817272v22.37c.65272035-.1894653 1.32269753-.313411 2-.37v-21c0-1.6568542 1.3431458-3 3-3h38c1.6568542 0 3 1.3431458 3 3v28c0 1.6568542-1.3431458 3-3 3h-29.05c.05.31.05.65.05 1 .0136126.2220138.0181502.4444444.0136126.6667362l-.0136126.3332638h30c.1345774 0 .2676025-.006646.398765-.0196277.0327895-.0032507.0648101-.0068165.0967143-.0107581.0359267-.0044366.0719033-.0093796.107724-.0147975.021445-.0032415.0432181-.0067178.0649317-.010369.0426797-.0071819.0846647-.0149458.1264143-.0233597.0240315-.0048396.0485342-.010016.0729531-.0154155.0429423-.0095002.0852186-.0195864.1272285-.0303377.0126697-.0032421.0254134-.0065708.0381321-.0099607.0495892-.0132168.0988011-.027363.1476141-.0424184.0142982-.0044109.0283631-.0088358.0423941-.0133361l.1133822-.0382606.0403383-.0145386c.0208874-.0076559.0416932-.0154811.0624157-.0234738l.0743378-.0295353.0450386-.018745c.0235428-.0099684.0469703-.0201558.07028-.0305597.0295695-.0131991.058825-.0266873.0878873-.0405157.025764-.0122543.05191-.0250442.0778939-.038109.0271458-.0136499.054008-.0275432.0806905-.0417297.0327575-.0174216.0648235-.0350465.0966178-.0530944.0250888-.0142378.050388-.0289654.075509-.0439607.0246609-.0147214.0490628-.0296461.0732904-.0448231.0319696-.0200268.0636336-.0404915.0949857-.0613871.0175183-.0116758.0348958-.0234563.0521751-.0353692.0374691-.0258328.0744529-.0522711.1109602-.0793162.0142919-.0105864.0286803-.021395.042993-.032298.0337686-.0257243.0670837-.0519476.099966-.0786827.0186685-.01518.0370567-.0304061.0553052-.0457926.0333532-.0281198.0663575-.0568808.0988789-.0861676.0107874-.0097149.0214666-.019437.0320928-.029216.0325573-.0299579.0647814-.0606112.096488-.0917891.0229799-.0226068.0450576-.0448393.0668735-.0673272.0204785-.0211049.0410148-.0427456.0613094-.0646137.0207018-.0223153.040636-.0442855.0603272-.0664762.0272578-.0307164.0541041-.0619205.0804718-.0935378.0137242-.0164596.0270855-.0327425.0403201-.0491319.0222613-.0275657.0442659-.0555663.0659013-.0838641.0147183-.0192543.0290515-.0383552.0432166-.0575875.0213219-.0289465.0423673-.0583403.0630207-.0880273.0186985-.0268727.0372407-.0542357.0554501-.0818376.0150738-.0228562.0296043-.0453768.0439133-.0680511.0213822-.0338735.0425209-.0685156.0631424-.1034989.017639-.0299303.0347062-.0597624.0513971-.0898322.0093208-.0167932.0184601-.0335412.0274827-.0503613.0208346-.038836.0411232-.0782111.0607707-.1179596.0094007-.0190227.0184991-.0378035.0274543-.0566655.0510788-.107569.0975798-.2180003.1391409-.3308212.0050165-.0136144.0100709-.0275719.0150495-.0415653.0325264-.0914827.0615897-.1836747.0873396-.2772395.0169307-.0615053.0324803-.1238301.0465493-.1867141l.0000489-.0002189c.0490741-.2193462.0801461-.445727.0915277-.6772843l.0048953-.1996403v-30c0-2.209139-1.790861-4-4-4h-40l-.110102.001486c-.0967817.0026155-.1927056.0086687-.287654.0180419-.0363636.0035874-.0728481.0076951-.1091807.0122901-.0327642.0041468-.0650485.0086358-.0972071.0135077-.0171041.0025896-.0345376.0053477-.0519333.008218-.0478858.007903-.0953459.0166283-.142505.0261832-.0171444.0034754-.0338704.0069785-.0505577.0105858-.0483907.0104569-.0967247.0218583-.1447114.0341274-.0172906.00442-.034713.0090004-.0520886.013695-.0430073.0116239-.0853921.0238443-.1274816.0367402-.0248602.0076122-.0502856.0156793-.0755995.0239923-.0385055.0126529-.0760563.0256221-.113349.03913-.032004.0115862-.0644367.0238115-.0966655.0364429l-.0543098.0217482-.0450386.018745c-.0253669.0107407-.0506.0217358-.0756961.0329819zm15.8140799 20.6520844h-14.1803149l.0003149 5.05c4.2791001.3913114 7.9386092 3.2384641 9.37 7.29l.1125.33.0975.33h29.42c.5128358 0 .9355072-.3860402.9932723-.8833789l.0067277-.1166211-.0003149-12h-14.1796851c-.4016109 1.1359423-1.440611 1.9153774-2.6308771 1.993537l-.1891229.006463h-6c-1.2048422-.0033861-2.2840039-.7261935-2.7513618-1.8236536zm9.82-9h-8v8c0 .5128358.3860402.9355072.8833789.9932723l.1166211.0067277h6c.5128358 0 .9355072-.3860402.9932723-.8833789l.0067277-.1166211zm-10 1h-14v6h14zm26 0h-14v6h14zm-1-9h-38c-.5128358 0-.9355072.3860402-.9932723.8833789l-.0067277.1166211-.0003149 6h14.0003149c0-.5128358.3860402-.9355072.8833789-.9932723l.1166211-.0067277h10c.5128358 0 .9355072.3860402.9932723.8833789l.0067277.1166211h13.9996851l.0003149-6c0-.5522847-.4477153-1-1-1zm-16.62-12h-4.76c-1.9347782 0-3.5150429 1.51785253-3.6149822 3.42774559l-.0050178.19225441v2.38h12v-2.38c0-1.99927079-1.6207292-3.62-3.62-3.62z" fill="#787e8c"/></svg>

<svg xmlns="http://www.w3.org/2000/svg" xmlns:xlink="http://www.w3.org/1999/xlink" width="58px" height="58px" viewBox="0 0 58 58" version="1.1">
    <title>Icons/Investor-website-1</title>
    <g id="Icons/Investor-website-1" stroke="none" stroke-width="1" fill="none" fill-rule="evenodd">
        <path d="M34.38,-1.42108547e-14 C37.4099393,-1.42108547e-14 39.8798497,2.39776897 39.9957468,5.39932261 L40,5.62 L40,8 L52,8 C55.2383969,8 57.8775718,10.5655749 57.9958615,13.7750617 L58,14 L58,44 C58,47.2383969 55.4344251,49.8775718 52.2249383,49.9958615 L52,50 L21.58,50 C21.4320344,50.5888996 21.2346684,51.1642717 20.99,51.72 C19.169733,55.5604332 15.2999763,58.0086944 11.05,58.0086944 C6.80002365,58.0086944 2.93026702,55.5604332 1.11,51.72 C0.582663448,50.6176999 0.244608628,49.4345081 0.11,48.22 C0.00958017806,47.4064203 0.00958017806,46.5835797 0.11,45.77 C0.105097531,45.6834027 0.105097531,45.5965973 0.11,45.51 C0.206205916,44.7628439 0.383931621,44.0284679 0.64,43.32 C1.53005823,40.7693838 3.33639827,38.6455467 5.70148047,37.3567242 L6,37.2 L6,14 C6,10.7616031 8.56557489,8.12242824 11.7750617,8.00413847 L12,8 L24,8 L24,5.62 C24,2.59006067 26.397769,0.120150281 29.3993226,0.0042531536 L29.62,-1.42108547e-14 L34.38,-1.42108547e-14 Z M11,38 C6.02943725,38 2,42.0294373 2,47 C2,51.9705627 6.02943725,56 11,56 C15.9705627,56 20,51.9705627 20,47 C20,42.0294373 15.9705627,38 11,38 Z M11,40.5 C11.5522847,40.5 12,40.9477153 12,41.5 L12,42.5 L13,42.5 C13.5522847,42.5 14,42.9477153 14,43.5 C14,44.0522847 13.5522847,44.5 13,44.5 L10.5,44.5 C10.2238576,44.5 10,44.7238576 10,45 C10,45.2761424 10.2238576,45.5 10.5,45.5 L11.5,45.5 C12.8807118,45.3619289 14.1119287,46.3692882 14.2499999,47.75 C14.3880711,49.1307118 13.3807118,50.3619288 12,50.5 L12,51.5 C12,52.0522847 11.5522847,52.5 11,52.5 C10.4477153,52.5 10,52.0522847 10,51.5 L10,50.5 L9,50.5 C8.44771525,50.5 8,50.0522847 8,49.5 C8,48.9477153 8.44771525,48.5 9,48.5 L11.5,48.5 C11.7761424,48.5 12,48.2761424 12,48 C12,47.7238576 11.7761424,47.5 11.5,47.5 L10.5,47.5 C9.11928816,47.6380711 7.88807129,46.6307118 7.75000011,45.25 C7.61192893,43.8692882 8.61928818,42.6380712 10,42.5 L10,41.5 C10,40.9477153 10.4477153,40.5 11,40.5 Z M10.3659201,10.3479156 L10.3137009,10.3717701 C10.3042677,10.3761618 10.2948545,10.3805893 10.2854614,10.3850522 C10.2590731,10.3975846 10.2322287,10.4107065 10.205555,10.4241181 C10.1784092,10.437768 10.151547,10.4516613 10.1248645,10.4658478 C10.092107,10.4832694 10.060041,10.5008943 10.0282467,10.5189422 C10.0062338,10.5314344 9.98397083,10.544355 9.9618453,10.5574827 C9.93396485,10.5740283 9.90659668,10.5907187 9.87944727,10.607726 C9.84747767,10.6277528 9.81581374,10.6482175 9.78446156,10.6691131 C9.76694334,10.6807889 9.74956578,10.6925694 9.73228654,10.7044823 C9.6948174,10.7303151 9.65783355,10.7567534 9.62132631,10.7837985 C9.60505725,10.7958495 9.5887135,10.8081505 9.57246776,10.8205732 C9.54512203,10.8414855 9.51818628,10.8626361 9.4915319,10.8841216 C9.46112012,10.9086312 9.43078378,10.9338255 9.40083064,10.9594548 C9.38356498,10.9742327 9.36689697,10.9887388 9.35035112,11.0033799 C9.3241682,11.0265411 9.29782723,11.0504728 9.27181042,11.0747475 C9.25034064,11.094784 9.22941228,11.1147417 9.20870193,11.134922 C9.18238439,11.1605645 9.15633833,11.1866494 9.13065451,11.2130882 C9.11206967,11.2322146 9.09334724,11.2518769 9.07482449,11.2717279 C9.05287338,11.2952599 9.03159383,11.3186174 9.01058972,11.3422254 C8.98792966,11.3676914 8.96542527,11.3936439 8.94325268,11.4198858 C8.92926341,11.4364417 8.91534433,11.4531885 8.90156016,11.4700499 C8.88056382,11.4957263 8.85954219,11.5221038 8.83885003,11.5487499 C8.81369429,11.5811441 8.78902899,11.6139305 8.7648615,11.6471028 C8.74708141,11.6715127 8.72979625,11.6958071 8.71277782,11.7203008 C8.69836804,11.741037 8.68400017,11.7621398 8.66983022,11.7833859 C8.64506456,11.8205205 8.62094556,11.8580249 8.59744297,11.8959515 C8.58637074,11.9138183 8.575405,11.9318296 8.5645783,11.9499335 C8.54608735,11.9808527 8.52798345,12.0120753 8.51029334,12.0435615 C8.49721264,12.0668433 8.48434739,12.0902894 8.47171176,12.1138769 C8.46109091,12.1337017 8.45056978,12.153748 8.44021464,12.1738935 C8.3911515,12.2693351 8.34575381,12.3671506 8.30428546,12.4670091 C8.24150147,12.6182488 8.18786189,12.7737018 8.14384653,12.9331481 C8.13608983,12.96124 8.12857145,12.9896952 8.12136062,13.0182728 C8.04209614,13.3324352 8,13.6613015 8,14 L8,14 L8,36.37 C8.65272035,36.1805347 9.32269753,36.056589 10,36 L10,36 L10,15 C10,13.3431458 11.3431458,12 13,12 L13,12 L51,12 C52.6568542,12 54,13.3431458 54,15 L54,15 L54,43 C54,44.6568542 52.6568542,46 51,46 L51,46 L21.95,46 C22,46.31 22,46.65 22,47 C22.0136126,47.2220138 22.0181502,47.4444444 22.0136126,47.6667362 L22,48 L52,48 C52.1345774,48 52.2676025,47.993354 52.398765,47.9803723 C52.4315545,47.9771216 52.4635751,47.9735558 52.4954793,47.9696142 C52.531406,47.9651776 52.5673826,47.9602346 52.6032033,47.9548167 C52.6246483,47.9515752 52.6464214,47.9480989 52.668135,47.9444477 C52.7108147,47.9372658 52.7527997,47.9295019 52.7945493,47.921088 C52.8185808,47.9162484 52.8430835,47.911072 52.8675024,47.9056725 C52.9104447,47.8961723 52.952721,47.8860861 52.9947309,47.8753348 C53.0074006,47.8720927 53.0201443,47.868764 53.032863,47.8653741 C53.0824522,47.8521573 53.1316641,47.8380111 53.1804771,47.8229557 C53.1947753,47.8185448 53.2088402,47.8141199 53.2228712,47.8096196 L53.3362534,47.771359 L53.3362534,47.771359 L53.3765917,47.7568204 C53.3974791,47.7491645 53.4182849,47.7413393 53.4390074,47.7333466 L53.5133452,47.7038113 L53.5133452,47.7038113 L53.5583838,47.6850663 C53.5819266,47.6750979 53.6053541,47.6649105 53.6286638,47.6545066 C53.6582333,47.6413075 53.6874888,47.6278193 53.7165511,47.6139909 C53.7423151,47.6017366 53.7684611,47.5889467 53.794445,47.5758819 C53.8215908,47.562232 53.848453,47.5483387 53.8751355,47.5341522 C53.907893,47.5167306 53.939959,47.4991057 53.9717533,47.4810578 C53.9968421,47.46682 54.0221413,47.4520924 54.0472623,47.4370971 C54.0719232,47.4223757 54.0963251,47.407451 54.1205527,47.392274 C54.1525223,47.3722472 54.1841863,47.3517825 54.2155384,47.3308869 C54.2330567,47.3192111 54.2504342,47.3074306 54.2677135,47.2955177 C54.3051826,47.2696849 54.3421664,47.2432466 54.3786737,47.2162015 C54.3929656,47.2056151 54.407354,47.1948065 54.4216667,47.1839035 C54.4554353,47.1581792 54.4887504,47.1319559 54.5216327,47.1052208 C54.5403012,47.0900408 54.5586894,47.0748147 54.5769379,47.0594282 C54.6102911,47.0313084 54.6432954,47.0025474 54.6758168,46.9732606 C54.6866042,46.9635457 54.6972834,46.9538236 54.7079096,46.9440446 C54.7404669,46.9140867 54.772691,46.8834334 54.8043976,46.8522555 C54.8273775,46.8296487 54.8494552,46.8074162 54.8712711,46.7849283 C54.8917496,46.7638234 54.9122859,46.7421827 54.9325805,46.7203146 C54.9532823,46.6979993 54.9732165,46.6760291 54.9929077,46.6538384 C55.0201655,46.623122 55.0470118,46.5919179 55.0733795,46.5603006 C55.0871037,46.543841 55.100465,46.5275581 55.1136996,46.5111687 C55.1359609,46.483603 55.1579655,46.4556024 55.1796009,46.4273046 C55.1943192,46.4080503 55.2086524,46.3889494 55.2228175,46.3697171 C55.2441394,46.3407706 55.2651848,46.3113768 55.2858382,46.2816898 C55.3045367,46.2548171 55.3230789,46.2274541 55.3412883,46.1998522 C55.3563621,46.176996 55.3708926,46.1544754 55.3852016,46.1318011 C55.4065838,46.0979276 55.4277225,46.0632855 55.448344,46.0283022 C55.465983,45.9983719 55.4830502,45.9685398 55.4997411,45.93847 C55.5090619,45.9216768 55.5182012,45.9049288 55.5272238,45.8881087 C55.5480584,45.8492727 55.568347,45.8098976 55.5879945,45.7701491 C55.5973952,45.7511264 55.6064936,45.7323456 55.6154488,45.7134836 C55.6665276,45.6059146 55.7130286,45.4954833 55.7545897,45.3826624 C55.7596062,45.369048 55.7646606,45.3550905 55.7696392,45.3410971 C55.8021656,45.2496144 55.8312289,45.1574224 55.8569788,45.0638576 C55.8739095,45.0023523 55.8894591,44.9400275 55.9035281,44.8771435 L55.903577,44.8769246 C55.9526511,44.6575784 55.9837231,44.4311976 55.9951047,44.1996403 L56,44 L56,14 C56,11.790861 54.209139,10 52,10 L12,10 L11.889898,10.001486 C11.7931163,10.0041015 11.6971924,10.0101547 11.602244,10.0195279 C11.5658804,10.0231153 11.5293959,10.027223 11.4930633,10.031818 C11.4602991,10.0359648 11.4280148,10.0404538 11.3958562,10.0453257 C11.3787521,10.0479153 11.3613186,10.0506734 11.3439229,10.0535437 C11.2960371,10.0614467 11.248577,10.070172 11.2014179,10.0797269 C11.1842735,10.0832023 11.1675475,10.0867054 11.1508602,10.0903127 C11.1024695,10.1007696 11.0541355,10.112171 11.0061488,10.1244401 C10.9888582,10.1288601 10.9714358,10.1334405 10.9540602,10.1381351 C10.9110529,10.149759 10.8686681,10.1619794 10.8265786,10.1748753 C10.8017184,10.1824875 10.776293,10.1905546 10.7509791,10.1988676 C10.7124736,10.2115205 10.6749228,10.2244897 10.6376301,10.2379976 C10.6056261,10.2495838 10.5731934,10.2618091 10.5409646,10.2744405 L10.4866548,10.2961887 L10.4866548,10.2961887 L10.4416162,10.3149337 C10.4162493,10.3256744 10.3910162,10.3366695 10.3659201,10.3479156 Z M26.18,31 L11.9996851,31 L12,36.05 C16.2791001,36.4413114 19.9386092,39.2884641 21.37,43.34 L21.4825,43.67 L21.58,44 L51,44 C51.5128358,44 51.9355072,43.6139598 51.9932723,43.1166211 L52,43 L51.9996851,31 L37.82,31 C37.4183891,32.1359423 36.379389,32.9153774 35.1891229,32.993537 L35,33 L29,33 C27.7951578,32.9966139 26.7159961,32.2738065 26.2486382,31.1763464 L26.18,31 Z M36,22 L28,22 L28,30 C28,30.5128358 28.3860402,30.9355072 28.8833789,30.9932723 L29,31 L35,31 C35.5128358,31 35.9355072,30.6139598 35.9932723,30.1166211 L36,30 L36,22 Z M26,23 L12,23 L12,29 L26,29 L26,23 Z M52,23 L38,23 L38,29 L52,29 L52,23 Z M51,14 L13,14 C12.4871642,14 12.0644928,14.3860402 12.0067277,14.8833789 L12,15 L11.9996851,21 L26,21 C26,20.4871642 26.3860402,20.0644928 26.8833789,20.0067277 L27,20 L37,20 C37.5128358,20 37.9355072,20.3860402 37.9932723,20.8833789 L38,21 L51.9996851,21 L52,15 C52,14.4477153 51.5522847,14 51,14 Z M34.38,2 L29.62,2 C27.6852218,2 26.1049571,3.51785253 26.0050178,5.42774559 L26,5.62 L26,8 L38,8 L38,5.62 C38,3.62072921 36.3792708,2 34.38,2 Z" id="Combined-Shape" fill="#787E8C" fill-rule="nonzero"/>
    </g>
</svg>
